icons/communication/email-arrow-up-24.svg

<svg width="24" height="24" viewBox="0 0 24 24" fill="none" xmlns="http://www.w3.org/2000/svg">
<g clip-path="url(#clip0_248_26)">
<path d="M21.6389 18.7776L19.2947 16.6427V22.2526C19.2947 22.4508 19.2115 22.6409 19.0634 22.7811C18.9154 22.9213 18.7146 23 18.5052 23C18.2958 23 18.095 22.9213 17.9469 22.7811C17.7989 22.6409 17.7157 22.4508 17.7157 22.2526V16.6427L15.3715 18.7776C15.301 18.8504 15.216 18.9093 15.1213 18.9508C15.0267 18.9923 14.9243 19.0157 14.8201 19.0195C14.7158 19.0233 14.6118 19.0076 14.5141 18.9731C14.4163 18.9387 14.3267 18.8862 14.2505 18.8188C14.1743 18.7514 14.1129 18.6703 14.07 18.5803C14.027 18.4903 14.0034 18.3932 14.0003 18.2944C13.9973 18.1957 14.015 18.0974 14.0523 18.0052C14.0896 17.913 14.1459 17.8287 14.2178 17.7572L17.9283 14.2371C18.0022 14.1623 18.0915 14.1026 18.1907 14.0618C18.29 14.021 18.397 14 18.5052 14C18.6134 14 18.7204 14.021 18.8196 14.0618C18.9188 14.1026 19.0082 14.1623 19.082 14.2371L22.7926 17.7572C22.9331 17.9024 23.0075 18.0943 22.9994 18.2911C22.9913 18.4879 22.9015 18.6738 22.7495 18.8083C22.5975 18.9428 22.3955 19.015 22.1875 19.0092C21.9795 19.0035 21.7824 18.9203 21.6389 18.7776Z" fill="black"/>
<path fill-rule="evenodd" clip-rule="evenodd" d="M0 4.75C0 3.7835 0.783502 3 1.75 3H22.25C23.2165 3 24 3.7835 24 4.75V11.375C24 11.7892 23.6642 12.125 23.25 12.125C22.8358 12.125 22.5 11.7892 22.5 11.375V7.18716L12.7516 11.8231C12.276 12.0492 11.724 12.0492 11.2484 11.8231L1.5 7.18715V18.75C1.5 18.8881 1.61193 19 1.75 19H9.25C9.66421 19 10 19.3358 10 19.75C10 20.1642 9.66421 20.5 9.25 20.5H1.75C0.783502 20.5 0 19.7165 0 18.75V4.75ZM1.5 5.52618L11.8926 10.4685C11.9606 10.5008 12.0394 10.5008 12.1074 10.4685L22.5 5.52618V4.75C22.5 4.61193 22.3881 4.5 22.25 4.5H1.75C1.61193 4.5 1.5 4.61193 1.5 4.75V5.52618Z" fill="black"/>
</g>
<defs>
<clipPath id="clip0_248_26">
<rect width="24" height="24" fill="white"/>
</clipPath>
</defs>
</svg>

<svg xmlns="http://www.w3.org/2000/svg" width="24" height="24"><path d="M21.639 18.778l-2.344-2.135v5.61a.728.728 0 01-.232.528.812.812 0 01-.558.219.813.813 0 01-.558-.219.728.728 0 01-.231-.528v-5.61l-2.345 2.135a.825.825 0 01-1.121.041.75.75 0 01-.18-.239.714.714 0 01.148-.823l3.71-3.52a.792.792 0 01.263-.175.828.828 0 01.891.175l3.71 3.52a.723.723 0 01.207.534.731.731 0 01-.25.517.815.815 0 01-.561.201.81.81 0 01-.55-.231z"/><path fill-rule="evenodd" d="M0 4.75C0 3.784.784 3 1.75 3h20.5c.966 0 1.75.784 1.75 1.75v6.625a.75.75 0 01-1.5 0V7.187l-9.748 4.636a1.75 1.75 0 01-1.504 0L1.5 7.187V18.75c0 .138.112.25.25.25h7.5a.75.75 0 010 1.5h-7.5A1.75 1.75 0 010 18.75v-14zm1.5.776l10.393 4.943a.25.25 0 00.214 0L22.5 5.526V4.75a.25.25 0 00-.25-.25H1.75a.25.25 0 00-.25.25v.776z"/></svg>
